icons/law-24.svg

<svg width="24" height="24" viewBox="0 0 24 24" xmlns="http://www.w3.org/2000/svg">
  <path fill-rule="evenodd" clip-rule="evenodd" d="M12.7501 2.75C12.7501 2.33579 12.4143 2 12.0001 2C11.5859 2 11.2501 2.33579 11.2501 2.75V4.49988H9.27578C8.92472 4.49988 8.58177 4.60547 8.29149 4.80292L6.59552 5.9566C6.55406 5.98481 6.50506 5.9999 6.45491 5.9999H2.35254C1.93833 5.9999 1.60254 6.33568 1.60254 6.7499C1.60254 7.16411 1.93833 7.4999 2.35254 7.4999H3.9311L0.563156 15.1797C0.430844 15.4814 0.519455 15.8502 0.77327 16.0599C0.853707 16.1244 0.934125 16.185 1.08202 16.2814C1.2676 16.4024 1.53431 16.5591 1.87449 16.7144C2.55462 17.025 3.53598 17.3335 4.75001 17.3335C5.96404 17.3335 6.9454 17.025 7.62553 16.7144C7.9657 16.5591 8.23242 16.4024 8.418 16.2814C8.56718 16.1842 8.64774 16.1234 8.72881 16.0582C8.98638 15.8445 9.07126 15.4861 8.93686 15.1797L5.56892 7.4999H6.45491C6.80598 7.4999 7.14893 7.39431 7.4392 7.19685L9.13517 6.04317C9.17664 6.01496 9.22563 5.99988 9.27578 5.99988H11.2501V20.5H6.76294C6.34873 20.5 6.01294 20.8358 6.01294 21.25C6.01294 21.6642 6.34873 22 6.76294 22H17.2373C17.6515 22 17.9873 21.6642 17.9873 21.25C17.9873 20.8358 17.6515 20.5 17.2373 20.5H12.7501V5.99988H14.7241C14.7743 5.99988 14.8233 6.01496 14.8647 6.04317L16.5607 7.19686C16.851 7.39431 17.1939 7.4999 17.545 7.4999H18.4311L15.0632 15.1797C14.9245 15.4959 15.0196 15.866 15.2937 16.0761C15.3051 16.0847 15.2926 16.0753 15.2947 16.0769C15.3251 16.0994 15.3557 16.1216 15.3869 16.143C15.4389 16.1787 15.5118 16.2266 15.6045 16.2825C15.7898 16.3942 16.0557 16.5385 16.3944 16.6814C17.0716 16.9673 18.046 17.25 19.25 17.25C20.454 17.25 21.4284 16.9673 22.1056 16.6814C22.4443 16.5385 22.7102 16.3942 22.8955 16.2825C23.0444 16.1927 23.125 16.1366 23.2063 16.0761C23.4804 15.866 23.5756 15.4959 23.4369 15.1797L20.0689 7.4999H21.6474C22.0616 7.4999 22.3974 7.16411 22.3974 6.7499C22.3974 6.33568 22.0616 5.9999 21.6474 5.9999H17.545C17.4949 5.9999 17.4459 5.98481 17.4044 5.9566L15.7084 4.80292C15.4181 4.60546 15.0752 4.49988 14.7241 4.49988H12.7501V2.75ZM2.19297 15.1981C2.2826 15.2468 2.38432 15.2982 2.49753 15.3499C3.02472 15.5907 3.79336 15.8335 4.75001 15.8335C5.70666 15.8335 6.4753 15.5907 7.00249 15.3499C7.1157 15.2982 7.21742 15.2468 7.30705 15.1981L4.75001 9.36742L2.19297 15.1981ZM16.7034 15.1743C16.7855 15.2147 16.877 15.257 16.9776 15.2995C17.5077 15.5232 18.2833 15.75 19.25 15.75C20.2167 15.75 20.9923 15.5232 21.5224 15.2995C21.623 15.257 21.7145 15.2147 21.7966 15.1743L19.25 9.36742L16.7034 15.1743Z"/>
</svg>

<svg xmlns="http://www.w3.org/2000/svg" width="24" height="24" viewBox="0 0 24 24"><path fill-rule="evenodd" d="M12.75 2.75a.75.75 0 00-1.5 0V4.5H9.276a1.75 1.75 0 00-.985.303L6.596 5.957A.25.25 0 016.455 6H2.353a.75.75 0 100 1.5H3.93L.563 15.18a.762.762 0 00.21.88c.08.064.161.125.309.221.186.121.452.278.792.433.68.311 1.662.62 2.876.62a6.919 6.919 0 002.876-.62c.34-.155.606-.312.792-.433.15-.097.23-.158.31-.223a.75.75 0 00.209-.878L5.569 7.5h.886c.351 0 .694-.106.984-.303l1.696-1.154A.25.25 0 019.275 6h1.975v14.5H6.763a.75.75 0 000 1.5h10.474a.75.75 0 000-1.5H12.75V6h1.974c.05 0 .1.015.14.043l1.697 1.154c.29.197.633.303.984.303h.886l-3.368 7.68a.75.75 0 00.23.896c.012.009 0 0 .002 0a3.154 3.154 0 00.31.206c.185.112.45.256.79.4a7.343 7.343 0 002.855.568 7.343 7.343 0 002.856-.569c.338-.143.604-.287.79-.399a3.5 3.5 0 00.31-.206.75.75 0 00.23-.896L20.07 7.5h1.578a.75.75 0 000-1.5h-4.102a.25.25 0 01-.14-.043l-1.697-1.154a1.75 1.75 0 00-.984-.303H12.75V2.75zM2.193 15.198a5.418 5.418 0 002.557.635 5.418 5.418 0 002.557-.635L4.75 9.368l-2.557 5.83zm14.51-.024c.082.04.174.083.275.126.53.223 1.305.45 2.272.45a5.846 5.846 0 002.547-.576L19.25 9.367l-2.547 5.807z"/></svg>
